-----BEGIN PGP PUBLIC KEY BLOCK-----
Comment: 5ED4 6A67 21D3 6558 7791  E2AA 783F CD8E 58BC AFBA

xsDiBDuVqKgRBAD5Mcvdc41W5lpeZvYplEuyEBXwmxnUryE2KaCG1C06sGyqgiec
VPXPbgIPKOUt4veMycVoqU4U4ZNuIeCGPfUvkGKLKvy5lK3iexC1Qvat+9ek2+yX
9zFlTo9QyT4kjn+xaZQYVctL370gUNV4eoiWDdrTjIvBfQCb+bf87eHv0QCg/7xt
wnq3uMpQHX+k2LGD2QDEjUcEALalUPPX99ZDjBN75CFUtbE43a73+jtNOLJFqGo3
ne/lB8DqVwavrgQQxQqjg2xBVvagNpu2Cpmz3HlWoaqEb5vwxjRjhF5WRE+4s4es
9536lQ6pd5tZK4tHMOjvICkSg2BLUsc8XzBreLv3GEdpHP6EeezgAVQyWMpZkCdn
Xk8FA/9gRmro4+X0KJilw1EShYzudEAi02xQbr9hGiA84pQ4hYkdnLLeRscChwxM
VmoiEuJ51ZzIPlcSifzvlQBHIyYCl0KJeVMECXyjLddWkQM32ZZmQvG02mL2XYmF
/UG+/0vd6b2ISmtns6WrULGPNtagHhul+8j7zUfedsWuqpwbm80mTWFyayBBZGxl
ciA8bWFkbGVyQGFsdW1uaS5jYWx0ZWNoLmVkdT7CdwQQEQIAGAUCO5WoqAgLAwkI
BwIBCgIZAQUbAwAAAAApCRB4P82OWLyvuhYhBF7Uamch02VYd5Hiqng/zY5YvK+6
B2VHUEcAAQFyjgCfZDgtbsqGGIl6dkjHXDzI+SfvCV0AnigT/Tq8dG1yupbslpwk
uSyYXr08zsFNBDuVqKkQCAD2Qle3CH8IF3KiutapQvMF6PlTETlPtvFuuUs4INoB
p1ajFOmPQFXz0AfGy0OplK33TGSGSfgMg71l6RfUodNQ+PVZX9x2Uk89PY3bzpnh
V5JZzf24rnRPxfx2vIPFRzBhznzJZv8V+bv9kV7HAarTW56NoKVyOtQa8L9GAFgr
5fSI/VhOSdvNILSd5JEHNmszbDgNRR0PfIizHHxbLY7288kjwEPwpVsYjY67VYy4
XTjTNP18F1dDox0YbN4zISy1Kv884bEpQBgRjXyEpwpy1obEAxnIByl6ypUM2Zaf
q9AKUJsCRtMIPWakXUGfnHy9iUsiGSa6q6Jew1XpMgs7AAICB/9oxZigEKhwBNex
9JQAlvr049RdaN69mIJ/qf7sh3cvlfm6bnkvmwQGvz7yblIi4dSKmmA0Ul27bHK6
VtvUx56C1O20RbKYX2wzxxZ95ONc853v5lC6aI5fCT+DSqqNOursRhbk+UyM7YVs
f8jH1IcpVL1rR4ZRSX48G/d+QRkEngeHB6pxJ8vIpT8IfKw3TdnfqC127UEmXMfL
wE/FbM/i+08SLntDV0UNj/46t2UGfApOmd7rLSsBuL/CToXEMZDzq91qksjnWRPG
+RjHz6pleoTgIbl9ZsAUNBVM1khYk2BgxfsqCXwW/D7vMKomy/8pu6icgRvmE1WJ
+VVNaUEAwmsEGBECAAwFAjuVqKkFGwwAAAAAKQkQeD/Njli8r7oWIQRe1GpnIdNl
WHeR4qp4P82OWLyvugdlR1BHAAEBT88An1VSVGbeKbIL+k8HaPUsWB7qs5RhAKDd
tkn0xqOr+0pE5eilEc61pMCmSQ==
=tyQI
-----END PGP PUBLIC KEY BLOCK-----
